X:1
T:Title
%%score { 1 | 2 }
L:1/8
Q:1/4=100
M:4/4
K:Bb
V:1 treble nm="Grand Piano"
V:2 bass 
V:1
 [DB]2 [DB]>[Dc] [EB] A3 | c2 c>d c [DB]3 | G>G BG [DF][B,D][DF][FG] | [FA][FB][FA][=EG] [_Ec]4 | %4
w: Robert~Harkness * * * *||||
 [DB]2 [DB]>[Dc] [EB] A3 | c2 c>d c [B,DB]3 | [B,EG]>[B,EG] [EGB][B,EG] [B,DF][F,B,D][B,DF][B,FB] | %7
w: |||
 de d<c [DB]4 |] %8
w: |
V:2
 [B,,F,]2 [B,,F,]>[B,,F,] [C,F,] [F,CE]3 | [F,A,E]2 [F,A,E]>[F,B,F] [F,A,E] [B,,B,]3 | %2
 [E,B,E]>[E,B,E] [G,B,E][E,B,E] [B,,B,][B,,F,][B,,B,][D,=B,] | [C,C][D,B,][C,C][C,B,] [F,A,]4 | %4
 [B,,B,]2 [B,,F,]>[B,,F,] [C,F,] [F,CE]3 | [F,A,E]2 [F,A,E]>[F,B,F] [F,A,E] B,,3 | %6
 E,>E, E,E, B,,B,,B,,D, | [F,B,F][G,B,E] [F,B,F]<[F,A,E] [B,,B,]4 |] %8

